packages/katcn/src/icons/svg/shoppingBag.svg

<svg width="24" height="24" viewBox="0 0 24 24" fill="none" xmlns="http://www.w3.org/2000/svg">
<path d="M17.7 22H6.30003C5.10003 22 4.00003 21.5 3.10003 20.6C2.30003 19.7 1.90003 18.5 2.00003 17.3L3.40003 5.9C3.60003 3.7 5.40003 2 7.60003 2H16.4C18.6 2 20.5 3.7 20.7 5.9L22 17.3C22.1 18.5 21.7 19.7 20.9 20.6C20.1 21.5 18.9 22 17.7 22ZM7.60003 4C6.40003 4 5.50003 4.9 5.40003 6.1L4.00003 17.5C3.90003 18.1 4.20003 18.7 4.60003 19.2C5.00003 19.7 5.60003 19.9 6.30003 19.9H17.8C18.4 19.9 19 19.6 19.5 19.2C19.9 18.7 20.1 18.1 20.1 17.5L18.6 6.1C18.5 4.9 17.6 4 16.4 4H7.60003Z" fill="black"/>
<path d="M12 11.4C9.20002 11.4 6.90002 9.1 6.90002 6.3C6.90002 5.7 7.30002 5.3 7.90002 5.3C8.50002 5.3 8.90002 5.7 8.90002 6.3C8.90002 8 10.3 9.4 12 9.4C13.7 9.4 15.1 8 15.1 6.3C15.1 5.7 15.5 5.3 16.1 5.3C16.7 5.3 17.1 5.7 17.1 6.3C17.1 9.1 14.8 11.4 12 11.4Z" fill="black"/>
</svg>

<svg xmlns="http://www.w3.org/2000/svg" fill="none" viewBox="0 0 24 24"><path fill="#000" d="M17.7 22H6.3c-1.2 0-2.3-.5-3.2-1.4-.8-.9-1.2-2.1-1.1-3.3L3.4 5.9C3.6 3.7 5.4 2 7.6 2h8.8c2.2 0 4.1 1.7 4.3 3.9L22 17.3c.1 1.2-.3 2.4-1.1 3.3s-2 1.4-3.2 1.4M7.6 4c-1.2 0-2.1.9-2.2 2.1L4 17.5c-.1.6.2 1.2.6 1.7s1 .7 1.7.7h11.5c.6 0 1.2-.3 1.7-.7.4-.5.6-1.1.6-1.7L18.6 6.1c-.1-1.2-1-2.1-2.2-2.1z"/><path fill="#000" d="M12 11.4c-2.8 0-5.1-2.3-5.1-5.1 0-.6.4-1 1-1s1 .4 1 1c0 1.7 1.4 3.1 3.1 3.1s3.1-1.4 3.1-3.1c0-.6.4-1 1-1s1 .4 1 1c0 2.8-2.3 5.1-5.1 5.1"/></svg>
